X: 131
T: REEL: Girls of Farranfore
C: C: Trad.; S: Máire O'Keeffe; Paddy Cronin; Denis Murphy
C: Set Leaders: Anton, Mars
Z: Anton Zille ed.; gian marco at The Session
N: https://thesession.org/members/26966/sets/94457
R: Reel
M: 4/4
L: 1/8
Q: 1/2=100
K: Edor
BE~E2 GBdB|AD~D2 FAed|BE~E2 G3B|dBAd BE~E2|
GBdg eddB|AD~D2 FAed|BE~E2 ~G3B|dBAd BE~E2||
BeeB egfe|dcdf afed|B/c/d ef ~g3e|dBAd BE~E2|
BeeB egfe|dcdf afdf|g2bg fgaf|edef gfed||

